assets/icons/24px/stroke/user-24px.svg

<svg width="24" height="24" viewBox="0 0 24 24" fill="none" xmlns="http://www.w3.org/2000/svg">
<path fill-rule="evenodd" clip-rule="evenodd" d="M12 3.99561C10.2015 3.99561 8.79999 5.39829 8.79999 7.06012C8.79999 8.72195 10.2015 10.1246 12 10.1246C13.7985 10.1246 15.2 8.72195 15.2 7.06012C15.2 5.39829 13.7985 3.99561 12 3.99561ZM6.79999 7.06012C6.79999 4.23241 9.15927 1.99561 12 1.99561C14.8407 1.99561 17.2 4.23241 17.2 7.06012C17.2 9.88783 14.8407 12.1246 12 12.1246C9.15927 12.1246 6.79999 9.88783 6.79999 7.06012ZM7.90551 14.4999C7.95297 14.5 8.00112 14.5 8.04998 14.5H14.95C14.9989 14.5 15.047 14.5 15.0945 14.4999C15.9297 14.4995 16.5501 14.4991 17.0857 14.6502C18.4252 15.0279 19.472 16.0748 19.8498 17.4142C20.0009 17.9499 20.0005 18.5703 20 19.4055C20 19.453 20 19.5011 20 19.55V21C20 21.5523 19.5523 22 19 22C18.4477 22 18 21.5523 18 21V19.55C18 18.5056 17.9905 18.1898 17.9249 17.9571C17.736 17.2874 17.2126 16.764 16.5429 16.5751C16.3102 16.5095 15.9943 16.5 14.95 16.5H8.04998C7.00563 16.5 6.68979 16.5095 6.4571 16.5751C5.78737 16.764 5.26396 17.2874 5.07507 17.9571C5.00945 18.1898 4.99998 18.5056 4.99998 19.55L4.99998 21C4.99998 21.5523 4.55227 22 3.99998 22C3.4477 22 2.99998 21.5523 2.99998 21L2.99998 19.55C2.99998 19.5011 2.99996 19.453 2.99993 19.4055C2.99946 18.5703 2.9991 17.9499 3.15016 17.4142C3.52793 16.0748 4.57476 15.0279 5.91422 14.6502C6.44984 14.4991 7.07029 14.4995 7.90551 14.4999Z" fill="white"/>
</svg>

<svg width="24" height="24" fill="none" xmlns="http://www.w3.org/2000/svg"><path fill-rule="evenodd" clip-rule="evenodd" d="M12 3.996c-1.799 0-3.2 1.402-3.2 3.064 0 1.662 1.401 3.065 3.2 3.065 1.799 0 3.2-1.403 3.2-3.065S13.799 3.996 12 3.996zM6.8 7.06c0-2.828 2.36-5.064 5.2-5.064 2.84 0 5.2 2.236 5.2 5.064s-2.36 5.065-5.2 5.065c-2.84 0-5.2-2.237-5.2-5.065zm1.106 7.44h7.189c.835 0 1.455 0 1.99.15a4 4 0 0 1 2.765 2.764c.15.536.15 1.156.15 1.991V21a1 1 0 1 1-2 0v-1.45c0-1.044-.01-1.36-.075-1.593a2 2 0 0 0-1.382-1.382c-.233-.066-.549-.075-1.593-.075h-6.9c-1.044 0-1.36.01-1.593.075a2 2 0 0 0-1.382 1.382C5.01 18.19 5 18.506 5 19.55V21a1 1 0 1 1-2 0v-1.45-.145c0-.835 0-1.455.15-1.99a4 4 0 0 1 2.764-2.765c.536-.15 1.156-.15 1.992-.15z" fill="#fff"/></svg>
